icons/numix/16x16/mimetypes/application-x-trash.svg

<?xml version="1.0" encoding="UTF-8" standalone="no"?>
<svg
   xmlns:dc="http://purl.org/dc/elements/1.1/"
   xmlns:cc="http://creativecommons.org/ns#"
   xmlns:rdf="http://www.w3.org/1999/02/22-rdf-syntax-ns#"
   xmlns:svg="http://www.w3.org/2000/svg"
   xmlns="http://www.w3.org/2000/svg"
   xmlns:sodipodi="http://sodipodi.sourceforge.net/DTD/sodipodi-0.dtd"
   xmlns:inkscape="http://www.inkscape.org/namespaces/inkscape"
   width="16"
   height="16"
   viewBox="0 0 16 16"
   id="svg2"
   version="1.1"
   inkscape:version="0.48.5 r10040"
   sodipodi:docname="application-x-trash.svg">
  <metadata
     id="metadata22">
    <rdf:RDF>
      <cc:Work
         rdf:about="">
        <dc:format>image/svg+xml</dc:format>
        <dc:type
           rdf:resource="http://purl.org/dc/dcmitype/StillImage" />
      </cc:Work>
    </rdf:RDF>
  </metadata>
  <defs
     id="defs20" />
  <sodipodi:namedview
     pagecolor="#ffffff"
     bordercolor="#666666"
     borderopacity="1"
     objecttolerance="10"
     gridtolerance="10"
     guidetolerance="10"
     inkscape:pageopacity="0"
     inkscape:pageshadow="2"
     inkscape:window-width="1280"
     inkscape:window-height="970"
     id="namedview18"
     showgrid="true"
     inkscape:zoom="41.7193"
     inkscape:cx="9.2323636"
     inkscape:cy="7.2962898"
     inkscape:window-x="0"
     inkscape:window-y="0"
     inkscape:window-maximized="1"
     inkscape:current-layer="svg2">
    <inkscape:grid
       type="xygrid"
       id="grid3010" />
  </sodipodi:namedview>
  <path
     style="fill:#dcdcdc;fill-opacity:1"
     d="M 2.667969,-4.459e-4 C 2.324219,-4.459e-4 2,0.3378121 2,0.6964468 L 2,15.303108 C 2,15.641365 2.34375,16 2.667969,16 l 10.664062,0 C 13.65625,16 14,15.641365 14,15.303108 L 14,3.9995538 10,-4.459e-4 z"
     id="path4"
     inkscape:connector-curvature="0"
     sodipodi:nodetypes="ssssssccs" />
  <path
     style="fill:#000000;fill-opacity:0.19599998"
     d="m 10.583223,3.3315848 0.0154,0.01953 0.04005,-0.01953 z m 0.02978,0.667969 3.387,3.6640621 0,-3.6640621 z"
     id="path6"
     inkscape:connector-curvature="0"
     sodipodi:nodetypes="cccccccc" />
  <g
     style="fill:#888888"
     id="g10"
     transform="matrix(1.2999414,0,0,1.2999414,-2.3995313,-2.5992969)">
    <path
       d="m 7.714844,11.5 0,-1.601562 -1.5625,0 0.273437,-0.460938 0.5,0 -0.726562,-1.222656 -1.582031,0 0.34375,0.195312 L 4.5,9.1875 l 1.238281,2.09375 0.117188,0.195312 0.03125,0.05078 z"
       id="path12"
       inkscape:connector-curvature="0" />
    <path
       d="m 10.5625,7.742188 -1.425781,0.804687 0.78125,1.316406 -0.542969,0 L 9.125,9.441406 8.398438,10.664062 9.191406,12 l 0,-0.390625 0.921875,0 L 11.351562,9.519531 11.46875,9.320312 11.5,9.273438 z"
       id="path14"
       inkscape:connector-curvature="0" />
    <path
       d="M 5.792969,6.886719 7.21875,7.691406 8,6.375 l 0.273438,0.457031 -0.25,0.421875 1.445312,0 0.792969,-1.335937 -0.34375,0.191406 -0.460938,-0.777344 -2.773437,0 z"
       id="path16"
       inkscape:connector-curvature="0" />
  </g>
  <path
     style="fill:#ffffff;fill-opacity:0.39200003"
     d="m 10,-4.459e-4 3.996396,3.9999997 -3.383784,0 C 10.313513,3.9995538 10,3.6824368 10,3.3833378 z"
     id="path8"
     inkscape:connector-curvature="0"
     sodipodi:nodetypes="ccssc" />
</svg>

<svg width="16" xmlns="http://www.w3.org/2000/svg" height="16" viewBox="0 0 16 16" xmlns:xlink="http://www.w3.org/1999/xlink">
<path style="fill:#dcdcdc" d="M 2.667969 0.332031 C 2.324219 0.332031 2 0.65625 2 1 L 2 15 C 2 15.324219 2.34375 15.667969 2.667969 15.667969 L 13.332031 15.667969 C 13.65625 15.667969 14 15.324219 14 15 L 14 4.667969 L 9.667969 0.332031 Z "/>
<path style="fill:#000;fill-opacity:.196" d="M 9.667969 4 L 9.6875 4.019531 L 9.738281 4 Z M 10.332031 4.667969 L 14 8.332031 L 14 4.667969 Z "/>
<path style="fill:#fff;fill-opacity:.392" d="M 9.667969 0.332031 L 14 4.667969 L 10.332031 4.667969 C 10.007812 4.667969 9.667969 4.324219 9.667969 4 Z "/>
<g style="fill:#888">
<path d="M 7.714844 11.5 L 7.714844 9.898438 L 6.152344 9.898438 L 6.425781 9.4375 L 6.925781 9.4375 L 6.199219 8.214844 L 4.617188 8.214844 L 4.960938 8.410156 L 4.5 9.1875 L 5.738281 11.28125 L 5.855469 11.476562 L 5.886719 11.527344 Z "/>
<path d="M 10.5625 7.742188 L 9.136719 8.546875 L 9.917969 9.863281 L 9.375 9.863281 L 9.125 9.441406 L 8.398438 10.664062 L 9.191406 12 L 9.191406 11.609375 L 10.113281 11.609375 L 11.351562 9.519531 L 11.46875 9.320312 L 11.5 9.273438 Z "/>
<path d="M 5.792969 6.886719 L 7.21875 7.691406 L 8 6.375 L 8.273438 6.832031 L 8.023438 7.253906 L 9.46875 7.253906 L 10.261719 5.917969 L 9.917969 6.109375 L 9.457031 5.332031 L 6.683594 5.332031 Z "/>
</g>
</svg>
